applications/preferences-system-devices-symbolic.svg

<svg xmlns="http://www.w3.org/2000/svg" width="16" height="16"><path d="M1 2c-.554 0-1 .446-1 1v10c0 .554.446 1 1 1h14c.554 0 1-.446 1-1V3c0-.554-.446-1-1-1H1zm1 2h2v2H2V4zm3 0h2v2H5V4zm3 0h2v2H8V4zm3 0h3v2h-3V4zM2 7h3v2H2V7zm4 0h2v2H6V7zm3 0h2v2H9V7zm3 0h2v2h-2V7zm-8 3h8v2H4v-2z"/></svg>

<?xml version="1.0" encoding="UTF-8" standalone="no"?>
<!-- Created with Inkscape (http://www.inkscape.org/) -->

<svg
   xmlns:dc="http://purl.org/dc/elements/1.1/"
   xmlns:cc="http://creativecommons.org/ns#"
   xmlns:rdf="http://www.w3.org/1999/02/22-rdf-syntax-ns#"
   xmlns:svg="http://www.w3.org/2000/svg"
   xmlns="http://www.w3.org/2000/svg"
   xmlns:sodipodi="http://sodipodi.sourceforge.net/DTD/sodipodi-0.dtd"
   xmlns:inkscape="http://www.inkscape.org/namespaces/inkscape"
   width="16"
   height="16"
   id="svg4152"
   version="1.1"
   inkscape:version="0.92.2 5c3e80d, 2017-08-06"
   viewBox="0 0 16 16"
   sodipodi:docname="preferences-system-devices-symbolic.svg">
  <defs
     id="defs4154" />
  <sodipodi:namedview
     id="base"
     pagecolor="#ededed"
     bordercolor="#000000"
     borderopacity="0.49803922"
     inkscape:pageopacity="0"
     inkscape:pageshadow="2"
     inkscape:zoom="31.392432"
     inkscape:cx="3.9432133"
     inkscape:cy="11.503671"
     inkscape:current-layer="layer1"
     showgrid="true"
     inkscape:grid-bbox="true"
     inkscape:document-units="px"
     inkscape:showpageshadow="false"
     borderlayer="true"
     inkscape:window-width="1920"
     inkscape:window-height="1012"
     inkscape:window-x="0"
     inkscape:window-y="32"
     inkscape:window-maximized="1">
    <inkscape:grid
       type="xygrid"
       id="grid4700"
       color="#000000"
       opacity="0.0627451"
       empcolor="#000000"
       empopacity="0.1254902"
       empspacing="4"
       spacingx="2"
       spacingy="2" />
  </sodipodi:namedview>
  <metadata
     id="metadata4157">
    <rdf:RDF>
      <cc:Work
         rdf:about="">
        <dc:format>image/svg+xml</dc:format>
        <dc:type
           rdf:resource="http://purl.org/dc/dcmitype/StillImage" />
        <dc:title />
      </cc:Work>
    </rdf:RDF>
  </metadata>
  <g
     id="layer1"
     inkscape:label="Layer 1"
     inkscape:groupmode="layer">
    <path
       style="opacity:1;fill:#000000;fill-opacity:1;stroke:none;stroke-width:2;stroke-linecap:round;stroke-linejoin:round;stroke-miterlimit:4;stroke-dasharray:none;stroke-opacity:1"
       d="M 1 2 C 0.446 2 0 2.446 0 3 L 0 13 C 0 13.554 0.446 14 1 14 L 15 14 C 15.554 14 16 13.554 16 13 L 16 3 C 16 2.446 15.554 2 15 2 L 1 2 z M 2 4 L 4 4 L 4 6 L 2 6 L 2 4 z M 5 4 L 7 4 L 7 6 L 5 6 L 5 4 z M 8 4 L 10 4 L 10 6 L 8 6 L 8 4 z M 11 4 L 14 4 L 14 6 L 11 6 L 11 4 z M 2 7 L 5 7 L 5 9 L 2 9 L 2 7 z M 6 7 L 8 7 L 8 9 L 6 9 L 6 7 z M 9 7 L 11 7 L 11 9 L 9 9 L 9 7 z M 12 7 L 14 7 L 14 9 L 12 9 L 12 7 z M 4 10 L 12 10 L 12 12 L 4 12 L 4 10 z "
       id="rect852" />
  </g>
</svg>
